X:231
T:Toby - Ford
%%VWML:SBG-1-2-348-0
F:http://www.vwml.org/record/SBG/1/2/348
Z:Original Sibelius transcriptions by M. & S. Graebe
M:4/4
I:linebreak $
K:Bb
V:1 treble nm="P1"
V:1
 F | B B E F | F D/C/ D D | F/F/F/F/ G F | D G2 F |$ F G/A/ B A/B/ | c B/c/ d d/d/ | g f d B | %8
 (F c) B2 :|"^or" D =A G2 :| %10

